rospo-dark/16x16/actions/draw-halfcircle4.svg

<svg height="16" viewBox="0 0 16 16" width="16" xmlns="http://www.w3.org/2000/svg"><path d="m1.0097656 3.9980469s-.02159997 1.0636781 0 1.1425781c0 3.7871 3.1328938 6.857422 6.9960938 6.857422 3.8631996 0 6.9941406-3.070322 6.9941406-6.857422v-1.1425781h-1.166016-.117187-11.4179689-.1230469z" fill="#d3dae3"/></svg>

<?xml version="1.0" encoding="UTF-8" standalone="no"?>
<svg xmlns="http://www.w3.org/2000/svg" width="22" height="22" viewBox="0 0 22 22">
 <defs>
  <style type="text/css" id="current-color-scheme">
   .ColorScheme-Text { color:#d3dae3; } .ColorScheme-Highlight { color:#5294e2; }
  </style>
 </defs>
 <path style="fill:currentColor;opacity:1" class="ColorScheme-Text" transform="translate(3 3)" d="M 1.0097656 3.9980469 C 1.0097656 3.9980469 0.98816563 5.061725 1.0097656 5.140625 C 1.0097656 8.927725 4.1426594 11.998047 8.0058594 11.998047 C 11.869059 11.998047 15 8.927725 15 5.140625 L 15 3.9980469 L 13.833984 3.9980469 L 13.716797 3.9980469 L 2.2988281 3.9980469 L 2.1757812 3.9980469 L 1.0097656 3.9980469 z"/>
</svg>
